X: 28209
T: Mrs. Crowley's
R: polka
M: 2/4
K: Gmajor
|:DG EG/E/|DG EG/E/|DG AG/A/|BA AG/E/|
DG EG/E/|DG EG/E/|DG AG/A/|1 BG G2:|2 BG G>B||
|:dB gB|dB gB|dB gB|c/B/A A>B|
dB gB|dB/d/ gB|GB AG/A/|1 BG G>B:|2 BG G2||

